X:1
T: Doug MacMaster's Hornpipe
C:
R:Reel
Q: 232
K:G
M:4/4
L:1/8
|:G2 DG BA GF|GB ((3def) g2 ((3def)|gd Bd ec AF|AG AB ((3cBA) FA|
G2 DG BA GF|GB ((3def) g2 ((3def)|gd Bd ec AF|1G2 B2 G4:|2G2 B2 A2 FG
|:AB AG FA de|fg fe d2 cd|eA A1/2A1/2A ge fd|eA A1/2A1/2A e2 dB|
AB AG FA de|fe dc de fg|((3agf) ((3gfe) fd ec|1da gf ed cB:|2df ec d4||
